Numix-Light/16/status/indicator-keyboard-Dz.svg

<?xml version="1.0" encoding="UTF-8" standalone="no"?>
<svg
   xmlns:dc="http://purl.org/dc/elements/1.1/"
   xmlns:cc="http://creativecommons.org/ns#"
   xmlns:rdf="http://www.w3.org/1999/02/22-rdf-syntax-ns#"
   xmlns:svg="http://www.w3.org/2000/svg"
   xmlns="http://www.w3.org/2000/svg"
   xmlns:sodipodi="http://sodipodi.sourceforge.net/DTD/sodipodi-0.dtd"
   xmlns:inkscape="http://www.inkscape.org/namespaces/inkscape"
   viewBox="0 0 16 16"
   id="svg2"
   version="1.1"
   inkscape:version="0.91 r13725"
   sodipodi:docname="indicator-keyboard-Dz.svg">
  <metadata
     id="metadata13">
    <rdf:RDF>
      <cc:Work
         rdf:about="">
        <dc:format>image/svg+xml</dc:format>
        <dc:type
           rdf:resource="http://purl.org/dc/dcmitype/StillImage" />
      </cc:Work>
    </rdf:RDF>
  </metadata>
  <defs
     id="defs11" />
  <sodipodi:namedview
     pagecolor="#ffffff"
     bordercolor="#666666"
     borderopacity="1"
     objecttolerance="10"
     gridtolerance="10"
     guidetolerance="10"
     inkscape:pageopacity="0"
     inkscape:pageshadow="2"
     inkscape:window-width="459"
     inkscape:window-height="369"
     id="namedview9"
     showgrid="false"
     inkscape:zoom="14.75"
     inkscape:cx="8"
     inkscape:cy="8"
     inkscape:window-x="65"
     inkscape:window-y="24"
     inkscape:window-maximized="0"
     inkscape:current-layer="svg2" />
  <path
     style="fill:#353535;fill-opacity:1"
     d="M 1.5996094 0 C 0.71320937 2.9605947e-16 0 0.71320937 0 1.5996094 L 0 14.400391 C 2.9605947e-16 15.286791 0.71320937 16 1.5996094 16 L 14.400391 16 C 15.286791 16 16 15.286791 16 14.400391 L 16 1.5996094 C 16 0.71320937 15.286791 0 14.400391 0 L 1.5996094 0 z M 4.8984375 4.828125 C 5.4024375 4.828125 5.8651562 4.8933906 6.2851562 5.0253906 C 6.7051562 5.1573906 7.0652344 5.3551406 7.3652344 5.6191406 C 7.6712344 5.8831406 7.9081719 6.213375 8.0761719 6.609375 C 8.2441719 7.005375 8.328125 7.4680938 8.328125 7.9960938 C 8.328125 8.5300938 8.2441719 8.994625 8.0761719 9.390625 C 7.9081719 9.786625 7.6712344 10.116859 7.3652344 10.380859 C 7.0652344 10.644859 6.7051563 10.842609 6.2851562 10.974609 C 5.8651563 11.106609 5.4024375 11.171875 4.8984375 11.171875 C 4.6464375 11.171875 4.3834219 11.156953 4.1074219 11.126953 C 3.8314219 11.102953 3.5869531 11.063766 3.3769531 11.009766 L 3.3769531 4.9980469 C 3.5869531 4.9380469 3.8314219 4.8970469 4.1074219 4.8730469 C 4.3834219 4.8430469 4.6464375 4.828125 4.8984375 4.828125 z M 4.9707031 5.359375 C 4.6467031 5.359375 4.4097656 5.3667656 4.2597656 5.3847656 C 4.1157656 5.4027656 4.0262344 5.415875 3.9902344 5.421875 L 3.9902344 10.578125 C 4.0262344 10.584125 4.1157656 10.597234 4.2597656 10.615234 C 4.4097656 10.633234 4.6467031 10.640625 4.9707031 10.640625 C 5.4207031 10.640625 5.8143906 10.580937 6.1503906 10.460938 C 6.4863906 10.334937 6.7680938 10.157688 6.9960938 9.9296875 C 7.2240937 9.7016875 7.3938125 9.4255625 7.5078125 9.1015625 C 7.6218125 8.7715625 7.6796875 8.4040937 7.6796875 7.9960938 C 7.6796875 7.5880938 7.6218125 7.2224375 7.5078125 6.8984375 C 7.3938125 6.5744375 7.2240937 6.2983125 6.9960938 6.0703125 C 6.7680938 5.8423125 6.4863906 5.666875 6.1503906 5.546875 C 5.8143906 5.420875 5.4207031 5.359375 4.9707031 5.359375 z M 9.3554688 6.4648438 L 12.541016 6.4648438 L 12.541016 6.9433594 C 12.403016 7.0993594 12.223953 7.3138438 12.001953 7.5898438 C 11.779953 7.8658437 11.543016 8.1755781 11.291016 8.5175781 C 11.039016 8.8535781 10.788969 9.2080781 10.542969 9.5800781 C 10.296969 9.9460783 10.080531 10.293047 9.8945312 10.623047 L 12.623047 10.623047 L 12.623047 11.119141 L 9.2207031 11.119141 L 9.2207031 10.695312 C 9.3767031 10.401312 9.568875 10.076656 9.796875 9.7226562 C 10.030875 9.3686562 10.269625 9.0216875 10.515625 8.6796875 C 10.761625 8.3316875 11.002328 8.0070313 11.236328 7.7070312 C 11.470328 7.4010312 11.668078 7.1529375 11.830078 6.9609375 L 9.3554688 6.9609375 L 9.3554688 6.4648438 z "
     id="path4" />
</svg>

<svg xmlns="http://www.w3.org/2000/svg" viewBox="0 0 16 16">
 <path d="m 1.6 0 c -0.886 0 -1.6 0.713 -1.6 1.6 l 0 12.801 c 0 0.886 0.713 1.6 1.6 1.6 l 12.801 0 c 0.886 0 1.6 -0.713 1.6 -1.6 l 0 -12.801 c 0 -0.886 -0.713 -1.6 -1.6 -1.6 l -12.801 0 z m 3.299 4.828 c 0.504 0 0.967 0.065 1.387 0.197 c 0.42 0.132 0.78 0.33 1.08 0.594 c 0.306 0.264 0.543 0.594 0.711 0.99 c 0.168 0.396 0.252 0.859 0.252 1.387 c 0 0.534 -0.084 0.999 -0.252 1.395 c -0.168 0.396 -0.405 0.726 -0.711 0.99 c -0.3 0.264 -0.66 0.462 -1.08 0.594 c -0.42 0.132 -0.883 0.197 -1.387 0.197 c -0.252 0 -0.515 -0.015 -0.791 -0.045 c -0.276 -0.024 -0.52 -0.063 -0.73 -0.117 l 0 -6.01 c 0.21 -0.06 0.454 -0.101 0.73 -0.125 c 0.276 -0.03 0.539 -0.045 0.791 -0.045 z m 0.072 0.531 c -0.324 0 -0.561 0.007 -0.711 0.025 c -0.144 0.018 -0.234 0.031 -0.27 0.037 l 0 5.156 c 0.036 0.006 0.126 0.019 0.27 0.037 c 0.15 0.018 0.387 0.025 0.711 0.025 c 0.45 0 0.844 -0.06 1.18 -0.18 c 0.336 -0.126 0.618 -0.303 0.846 -0.531 c 0.228 -0.228 0.398 -0.504 0.512 -0.828 c 0.114 -0.33 0.172 -0.697 0.172 -1.105 c 0 -0.408 -0.058 -0.774 -0.172 -1.098 c -0.114 -0.324 -0.284 -0.6 -0.512 -0.828 c -0.228 -0.228 -0.51 -0.403 -0.846 -0.523 c -0.336 -0.126 -0.73 -0.188 -1.18 -0.188 z m 4.385 1.105 l 3.186 0 l 0 0.479 c -0.138 0.156 -0.317 0.37 -0.539 0.646 c -0.222 0.276 -0.459 0.586 -0.711 0.928 c -0.252 0.336 -0.502 0.691 -0.748 1.063 c -0.246 0.366 -0.462 0.713 -0.648 1.043 l 2.729 0 l 0 0.496 l -3.402 0 l 0 -0.424 c 0.156 -0.294 0.348 -0.619 0.576 -0.973 c 0.234 -0.354 0.473 -0.701 0.719 -1.043 c 0.246 -0.348 0.487 -0.673 0.721 -0.973 c 0.234 -0.306 0.432 -0.554 0.594 -0.746 l -2.475 0 l 0 -0.496 z" style="fill:#353535;fill-opacity:1"/>
</svg>
